X:22
T:Rambling Pitchfork, The     Jig     Allan's #22
C:Trad/Anon.
B:Allan's Irish Fiddler (pub. Mozart Allen,  Glascow) date unknown
Z:FROM ALLAN'S TO NOTEWORTHY, FROM NOTEWORTHY TO ABC, MIDI AND .TXT BY VINCE
BRENNAN Dec. 2002 (HTTP://WWW.SOSYOURMOM.COM)
I:abc2nwc
M:6/8
L:1/8
K:D
E|{G}FEF AFF|dFF AFD|GFG ABc|ded cAG|
FEF AFF|dFF AFD|EDE BGB|AFD D2:|
|:A|d2e fed|ecA AFA|dcd efg|
[1faf gfe|dcd fdf|ecA AGF|GFG BGB|AFD D2:|
[2faf gfg|agf gfe|fed ecA|GFG BGB|AFD D2|]
